icons/bug-small-top-16.svg

<svg width="16" height="16" viewBox="0 0 16 16" fill="none" xmlns="http://www.w3.org/2000/svg">
<path fill-rule="evenodd" clip-rule="evenodd" d="M4.71967 0.21967C5.01256 -0.0732233 5.48744 -0.0732233 5.78033 0.21967L6.77939 1.21873C7.15943 1.07729 7.57069 1 8 1C8.42931 1 8.84057 1.07729 9.22061 1.21873L10.2197 0.21967C10.5126 -0.0732233 10.9874 -0.0732233 11.2803 0.21967C11.5732 0.512563 11.5732 0.987437 11.2803 1.28033L10.505 2.05564C11.1207 2.68646 11.5 3.54893 11.5 4.5V4.82692C11.5 4.92663 11.4913 5.0243 11.4746 5.11921C11.9022 5.26457 12.272 5.53505 12.5403 5.88703L13.794 5.52886C14.1922 5.41506 14.6073 5.64568 14.7211 6.04396C14.8349 6.44224 14.6043 6.85735 14.206 6.97114L13 7.31573V9H14.25C14.6642 9 15 9.33579 15 9.75C15 10.1642 14.6642 10.5 14.25 10.5H12.9753C12.9205 11.0519 12.776 11.5773 12.5565 12.0616L13.9872 12.5385C14.3801 12.6695 14.5925 13.0942 14.4615 13.4872C14.3305 13.8801 13.9058 14.0925 13.5128 13.9615L12.0128 13.4615C11.9121 13.4279 11.8233 13.3751 11.749 13.3084C10.8329 14.3458 9.49283 15 8 15C6.50717 15 5.16714 14.3458 4.25098 13.3084C4.17673 13.3751 4.08788 13.4279 3.98717 13.4615L2.48717 13.9615C2.09421 14.0925 1.66947 13.8801 1.53849 13.4872C1.4075 13.0942 1.61987 12.6695 2.01283 12.5385L3.44346 12.0616C3.224 11.5773 3.07948 11.0519 3.02469 10.5H1.75C1.33579 10.5 1 10.1642 1 9.75C1 9.33579 1.33579 9 1.75 9H3V7.31574L1.79395 6.97114C1.39568 6.85734 1.16506 6.44222 1.27886 6.04395C1.39266 5.64568 1.80777 5.41506 2.20605 5.52886L3.45964 5.88704C3.72801 5.53506 4.09781 5.26458 4.52544 5.11921C4.50872 5.0243 4.5 4.92663 4.5 4.82692V4.5C4.5 3.54893 4.87934 2.68646 5.49498 2.05564L4.71967 1.28033C4.42678 0.987437 4.42678 0.512563 4.71967 0.21967ZM6.17308 5L9.82692 5C9.92251 5 10 4.92251 10 4.82692V4.5C10 3.39543 9.10457 2.5 8 2.5C6.89543 2.5 6 3.39543 6 4.5V4.82692C6 4.92251 6.07749 5 6.17308 5ZM5.25 6.5C4.83579 6.5 4.5 6.83579 4.5 7.25V10C4.5 11.933 6.067 13.5 8 13.5C9.933 13.5 11.5 11.933 11.5 10V7.25C11.5 6.83579 11.1642 6.5 10.75 6.5H5.25Z" fill="black"/>
</svg>

<svg xmlns="http://www.w3.org/2000/svg" width="16" height="16" viewBox="0 0 16 16"><path fill-rule="evenodd" d="M4.72.22a.75.75 0 011.06 0l1 .999a3.492 3.492 0 012.441 0l.999-1a.75.75 0 111.06 1.061l-.775.776c.616.63.995 1.493.995 2.444v.327c0 .1-.009.197-.025.292.427.146.797.416 1.065.768l1.254-.358a.75.75 0 11.412 1.442L13 7.316V9h1.25a.75.75 0 010 1.5h-1.275a4.967 4.967 0 01-.418 1.562l1.43.477a.75.75 0 01-.474 1.422l-1.5-.5a.748.748 0 01-.264-.153A4.988 4.988 0 018 15a4.988 4.988 0 01-3.749-1.692.748.748 0 01-.264.153l-1.5.5a.75.75 0 11-.474-1.422l1.43-.477a4.968 4.968 0 01-.418-1.562H1.75a.75.75 0 010-1.5H3V7.316L1.794 6.97a.75.75 0 01.412-1.442l1.254.358a2.255 2.255 0 011.065-.768 1.684 1.684 0 01-.025-.292V4.5c0-.951.38-1.814.995-2.444L4.72 1.28a.75.75 0 010-1.06zM6.173 5h3.654A.173.173 0 0010 4.827V4.5a2 2 0 10-4 0v.327c0 .096.077.173.173.173zM5.25 6.5a.75.75 0 00-.75.75V10a3.5 3.5 0 107 0V7.25a.75.75 0 00-.75-.75h-5.5z"/></svg>
